X:254
T:Sailors Hornpipe. Le4.254, The
T:Fisher's Hornpipe,aka. Le4.255
L:1/8
B:L.Leadley MS#4 c1850
Z:vmp.Mike Hicken 2016 www.village-music-project.org.uk
N: * This note is a quaver in the original.
M:C|
Q:1/4=120
K:C
"*"B2|cBcG EG ce| dcBA G2 f2|ecgc acgc|dcBA G2 ed|cBcG EG ce|
dcBA G2f2|egec dfdB|c2c2c2 :: (ef)|gege c2 fg|afaf d2 ef|gege afge|
dcBA G2 ed|cBcG EGce|dcBA G2f2|egec dfdB|c2c2c2 :|

